icon/pk/click.svg

<svg viewBox="0 0 48 48" fill="none" xmlns="http://www.w3.org/2000/svg" height="1em" width="1em">
  <path d="M24 4V12" stroke="black" stroke-width="4" stroke-linecap="round" stroke-linejoin="round"/>
  <path fill-rule="evenodd" clip-rule="evenodd" d="M22 22L42 26L36 30L42 36L36 42L30 36L26 42L22 22Z" fill="#2F88FF" stroke="black" stroke-width="4" stroke-linecap="round" stroke-linejoin="round"/>
  <path d="M38.1421 9.85789L32.4853 15.5147" stroke="black" stroke-width="4" stroke-linecap="round" stroke-linejoin="round"/>
  <path d="M9.85787 38.1421L15.5147 32.4853" stroke="black" stroke-width="4" stroke-linecap="round" stroke-linejoin="round"/>
  <path d="M4 24H12" stroke="black" stroke-width="4" stroke-linecap="round" stroke-linejoin="round"/>
  <path d="M9.85795 9.85787L15.5148 15.5147" stroke="black" stroke-width="4" stroke-linecap="round" stroke-linejoin="round"/>
</svg>

<svg width="48" height="48" fill="none" xmlns="http://www.w3.org/2000/svg"><path d="M24 4v8" stroke="#000" stroke-width="4" stroke-linecap="round" stroke-linejoin="round"/><path fill-rule="evenodd" clip-rule="evenodd" d="m22 22 20 4-6 4 6 6-6 6-6-6-4 6-4-20Z" fill="#2F88FF" stroke="#000" stroke-width="4" stroke-linecap="round" stroke-linejoin="round"/><path d="m38.142 9.858-5.657 5.657M9.858 38.142l5.657-5.657M4 24h8M9.858 9.858l5.657 5.657" stroke="#000" stroke-width="4" stroke-linecap="round" stroke-linejoin="round"/></svg>
